X: 103
T: Ma mepuo
L: 1/8
M: 2/4
K: F
cf2c [I:setbarnb 1]| 
B2A G | 
F> _E D F | 
G4 | 
G c D C | 
F Gc2 | 
F D/ C/ B, G, | 
C4 | 
F> G D C | 
F GC2 | 
z c B c | 
f2c f | 
B2A A | 
G F _E D | 
C3G | 
F G F/ G/ _E/ D/ | 
C4 |]

@@@ Tune index: 8977
